X:225
T:Merrily Danced the Quacker's Wife
C:Joe Buchanan's Scottish Tome - Page 290.3
I:290 3
Z:Carl Allison
R:Jig
L:1/8
M:6/8
K:D
A | "D"d>ef A2 f | "Em"g2 f "A7"e2 A | "D"d>ef A2 A | "G"B3 "D"d2 A |
"D"d>ef A2 f | "D"a>gf "A7"e2 A | "D"d>ef A2 A | "G"B3 "D"d2 :|
A | "D"d2 f a2 f | "D"b2 g a2 f | "D"d2 f a2 g | "D7"f3 ua2- ua |
b2 g e>fg | "D"a2 f d2 A | "D"d>ef "D/F#"A2 A | "G"B3 "D"d2 :|

